Papirus-nordic/24x24/places/folder-red-tar.svg

<svg xmlns="http://www.w3.org/2000/svg" width="24" height="24" version="1"><rect width="20" height="12" x="2" y="9.5" rx="1" ry="1" opacity=".2"/><path d="M2 17c0 .554.446 1 1 1h18c.554 0 1-.446 1-1V6c0-.554-.446-1-1-1H11V4c0-.554-.446-1-1-1H3c-.554 0-1 .446-1 1" fill="#ae4f58"/><rect width="20" height="12" x="2" y="8.5" rx="1" ry="1" opacity=".2"/><rect width="16" height="8" x="4" y="7" rx="1" ry="1" fill="#e4e4e4"/><rect width="20" height="12" x="2" y="9" rx="1" ry="1" fill="#bf616a"/><path d="M3 3c-.554 0-1 .446-1 1v.5c0-.554.446-1 1-1h7c.554 0 1 .446 1 1V4c0-.554-.446-1-1-1zm8 2v.5h10c.554 0 1 .446 1 1V6c0-.554-.446-1-1-1z" opacity=".1" fill="#fff"/><g fill="#974a4d"><path d="M12 9v1h1V9h-1zm0 1h-1v1h1v-1zm0 1v1c.552 0 1-.5 1-1h-1zM12 12c-1.105 0-2 .9-2 2v4c0 1.1.895 2 2 2s2-.9 2-2v-4c0-1.1-.895-2-2-2zm0 1c.552 0 1 .4 1 1 0 .5-.448 1-1 1s-1-.5-1-1c0-.6.448-1 1-1zm0 3c.552 0 1 .4 1 1v1c0 .5-.448 1-1 1s-1-.5-1-1v-1c0-.6.448-1 1-1z"/></g></svg>

<svg xmlns="http://www.w3.org/2000/svg" width="24" height="24" version="1">
 <rect style="opacity:0.2" width="20" height="12" x="2" y="9.5" rx="1" ry="1"/>
 <path style="fill:#ae4f58" d="M 2,17 C 2,17.554 2.446,18 3,18 H 21 C 21.554,18 22,17.554 22,17 V 6 C 22,5.446 21.554,5 21,5 H 11 V 4 C 11,3.446 10.554,3 10,3 H 3 C 2.446,3 2,3.446 2,4"/>
 <rect style="opacity:0.2" width="20" height="12" x="2" y="8.5" rx="1" ry="1"/>
 <rect style="fill:#e4e4e4" width="16" height="8" x="4" y="7" rx="1" ry="1"/>
 <rect style="fill:#bf616a" width="20" height="12" x="2" y="9" rx="1" ry="1"/>
 <path style="opacity:0.1;fill:#ffffff" d="M 3,3 C 2.446,3 2,3.446 2,4 V 4.5 C 2,3.946 2.446,3.5 3,3.5 H 10 C 10.554,3.5 11,3.946 11,4.5 V 4 C 11,3.446 10.554,3 10,3 Z M 11,5 V 5.5 H 21 C 21.554,5.5 22,5.946 22,6.5 V 6 C 22,5.446 21.554,5 21,5 Z"/>
 <g>
  <path style="fill:#974a4d" d="M 12 9 L 12 10 L 13 10 L 13 9 L 12 9 z M 12 10 L 11 10 L 11 11 L 12 11 L 12 10 z M 12 11 L 12 12 C 12.552 12 13 11.5 13 11 L 12 11 z"/>
  <path style="fill:#974a4d" d="M 12,12 C 10.895,12 10,12.9 10,14 V 18 C 10,19.1 10.895,20 12,20 13.105,20 14,19.1 14,18 V 14 C 14,12.9 13.105,12 12,12 Z M 12,13 C 12.552,13 13,13.4 13,14 13,14.5 12.552,15 12,15 11.448,15 11,14.5 11,14 11,13.4 11.448,13 12,13 Z M 12,16 C 12.552,16 13,16.4 13,17 V 18 C 13,18.5 12.552,19 12,19 11.448,19 11,18.5 11,18 V 17 C 11,16.4 11.448,16 12,16 Z"/>
 </g>
</svg>
